X: 2093
T: Mrs Baird of Newbyth's    Strathspey
%R: strathspey
B: Niel Gow & Sons "A Second Collection of Strathspey Reels, etc." v.2 p.9 #3
Z: 2022 John Chambers <jc:trillian.mit.edu>
N: The 2nd strain has initial repeat but no final repeat; not fixed.
M: C
L: 1/8
K: C
% - - - - - - - - - -
% Voice 1 reformatted for 2 6-bar lines.
V: 1 staves=2
F |\
E/F/G G>A cd{cd}e>d | Tc>A{A}GE A<DD>F |\
E/F/G G>A cd {cd}ed | Tc>A{A}GE G<CC :: f |\
(e/f/g) cg e<cg>e | Tf>g (a/g/)f/e/ fddg |
(e/f/g) cg ecge | c>A{A}GE G<CC>f ||\
(e/f/g) cg e<cTg>e | Tf>g (a/g/f/)e/ fddg |\
e>gd>e c>d{cd}e>d | Tc>A{A}GE G<CC |]
% - - - - - - - - - -
% Voice 2 preserves the staff layout in the book.
V: 2 clef=bass middle=d
z | c2c2 c2c2 | e2c2 d2G2 | c2c2 e2c2 | f2g2 c2c :: z | c'2c'2 c'2c'2 |
b2c'2 g2G2 | c'2c'2 c'2c'2 | f2g2 c2c2 || c'2c'2 c'2c'2 | b2c'2 g2G2 | c'2b2 a2e2 | f2g2 c2c |]


